X: 2251
T: Babes In The Wood
R: polka
M: 2/4
K: Dmajor
|:d>e fg|a2 af|g2 fe|df A2|
d>e fg|a2 af|g2 fe|d2 d2:|
|:e>e fd|eg fd|e>g fe|dB BA|
e>e fd|eg fd|g2 fe|d2 d2:|

